src/topics/icons/bem-2.svg

<svg height="220" preserveAspectRatio="xMidYMid" viewBox="0 0 256 220" width="256" xmlns="http://www.w3.org/2000/svg"><path d="m146.334886 187.820408h108.833293v31.346939h-108.833293z" fill="#010101"/><path d="m130.075454 187.820408v-56.946939h-51.1385352v56.946939z" fill="#f7b334"/><path d="m108.046547 62.1714286h-41.9598243l-31.9943658-62.1714286h-33.830108v187.820408h78.9369188v-56.946939h66.8734693v-30.824489c0-21.4204086-15.472685-37.8775514-38.02609-37.8775514zm12.587947 50.9387754h-11.538952l-13.1124448-2.873469v-2.87347h24.6513968z" fill="#010101"/></svg>

<?xml version="1.0" encoding="UTF-8" standalone="no" ?>
<svg width="256px" height="220px" viewBox="0 0 256 220" version="1.1" xmlns="http://www.w3.org/2000/svg" xmlns:xlink="http://www.w3.org/1999/xlink" preserveAspectRatio="xMidYMid">
    <g>
        <path d="M146.334886,187.820408 L255.168179,187.820408 L255.168179,219.167347 L146.334886,219.167347 L146.334886,187.820408 Z" fill="#010101"></path>
        <path d="M130.075454,187.820408 L130.075454,130.873469 L78.9369188,130.873469 L78.9369188,187.820408 L130.075454,187.820408" fill="#F7B334"></path>
        <path d="M108.046547,62.1714286 L66.0867227,62.1714286 L34.0923569,0 L0.2622489,0 L0.2622489,187.820408 L79.1991677,187.820408 L79.1991677,130.873469 L146.072637,130.873469 L146.072637,100.04898 C146.072637,78.6285714 130.599952,62.1714286 108.046547,62.1714286 L108.046547,62.1714286 Z M120.634494,113.110204 L109.095542,113.110204 L95.9830972,110.236735 L95.9830972,107.363265 L120.634494,107.363265 L120.634494,113.110204 L120.634494,113.110204 Z" fill="#010101"></path>
    </g>
</svg>
